moscow-sport/img/sprite/cat4.svg

<svg width="499" height="484" fill="none" xmlns="http://www.w3.org/2000/svg"><g clip-path="url(#clip0)"><g clip-path="url(#clip1)"><path d="M2.771 379.959C19.09 298.456 59.747 96.074 67.16 66.629c9.32-36.99 54.519-24.141 54.519-24.141L93.915 423.473l-64.166-6.352c-8.621-.853-16.485-5.384-21.606-12.482a31.533 31.533 0 0 1-5.372-24.68z" fill="#EB3333"/><path d="M517.521 475.065c20.076 1.552 37.626-13.459 39.178-33.536l23.99-309.143c1.315-17.053-10.953-32.155-27.919-34.352L106.337 40.43c-13.283-1.708-25.323 7.899-26.621 21.223L45.769 415.474c-1.199 12.525 8.112 23.582 20.637 24.574l451.115 35.017z" fill="#EB3333"/><path d="M538.061 446.173c6.189.509 11.395-4.552 11.034-10.744-2.363-41.047-8.548-182.09 9.284-296.897.807-5.227-2.832-10.127-8.071-10.811l-431.5-56.643c-5.914-.772-11.341 3.375-12.154 9.285-6.653 48.363-33.295 247.572-31.358 319.503a8.602 8.602 0 0 0 7.882 8.325l454.883 37.982zM44.986 412.701a1.144 1.144 0 0 0 1.24-1.017L67.319 212.65c.063-.636-.381-1.177-1.015-1.261a1.145 1.145 0 0 0-1.241 1.017L43.97 411.44a1.123 1.123 0 0 0 1.015 1.261zM70.912 167.965a1.145 1.145 0 0 0 1.24-1.017l7.359-69.518a1.149 1.149 0 0 0-1.015-1.262 1.145 1.145 0 0 0-1.24 1.018l-7.36 69.518a1.136 1.136 0 0 0 1.016 1.261z" fill="#EB3333"/><path d="M204.94 16.136c19.983 6.476 12.734 60.023 8.934 81.66a9.882 9.882 0 0 1-10.712 8.122 5.003 5.003 0 0 1-3.569-2.053 4.977 4.977 0 0 1-.866-4.024c3.397-16.308 11.853-63.414-2.941-67.449 0 0-10.588-2.976-14.483 17.74l-11.659-1.155c-.021-.002 10.172-40.987 35.296-32.841zM304.099 28.729c19.983 6.476 12.734 60.023 8.932 81.681a9.882 9.882 0 0 1-10.712 8.122 5.006 5.006 0 0 1-3.57-2.053 4.981 4.981 0 0 1-.866-4.024c3.397-16.308 11.858-63.456-2.936-67.49 0 0-10.629-2.566-14.479 17.698l-11.659-1.154c-.023.019 10.166-40.926 35.29-32.78zM403.253 41.363c19.983 6.476 12.732 60.045 8.93 81.702-.898 5.093-5.562 8.652-10.714 8.142a5.06 5.06 0 0 1-3.571-2.032 4.981 4.981 0 0 1-.866-4.024c3.397-16.308 11.859-63.476-2.935-67.51 0 0-10.656-2.279-14.517 18.088l-11.639-1.567c.024-.039 10.188-40.945 35.312-32.799zM502.367 54.408c19.983 6.476 12.73 60.065 8.928 81.722-.898 5.093-5.562 8.653-10.714 8.143a4.987 4.987 0 0 1-3.571-2.033 4.977 4.977 0 0 1-.866-4.024c3.397-16.308 11.865-63.538-2.931-67.552 0 0-10.62-2.647-14.471 17.617l-11.659-1.154s10.16-40.865 35.284-32.72z" fill="#EB3333"/><path d="M296.09 176.637l-2.43 31.245a8.557 8.557 0 0 1-9.339 7.864l-31.998-2.981c-4.662-.44-8.112-4.534-7.735-9.181l2.547-32.85c.385-4.936 4.864-8.514 9.77-7.821l31.861 4.584c4.475.65 7.687 4.637 7.324 9.14zM403.957 227.32l-31.999-2.981c-4.662-.441-8.112-4.534-7.735-9.181l2.164-27.934c.383-4.916 4.819-8.478 9.688-7.83l31.887 4.317c4.5.612 7.751 4.623 7.386 9.147l-2.073 26.596c-.348 4.774-4.552 8.296-9.318 7.866zM362.194 363.388l30.449 2.724c5.094.463 8.881 4.921 8.48 10.022l-2.225 28.55c-.397 5.059-4.777 8.896-9.847 8.601l-30.528-1.716c-5.236-.29-9.202-4.828-8.789-10.052l2.302-29.538c.41-5.182 4.979-9.042 10.158-8.591zM409.742 405.073l2.162-27.914c.401-5.1 4.88-8.885 9.976-8.443l30.759 2.734c5.013.455 8.724 4.843 8.351 9.864l-2.083 26.906c-.389 4.977-4.679 8.739-9.666 8.453l-30.836-1.747c-5.156-.261-9.046-4.73-8.663-9.853zM419.519 279.083l1.771-22.915c.423-5.534 5.326-9.629 10.846-9.062l29.347 2.967c5.337.528 9.284 5.251 8.859 10.598l-1.69 21.887c-.409 5.391-5.103 9.465-10.498 9.097l-29.428-1.939c-5.476-.376-9.625-5.16-9.207-10.633zM414.36 345.648l2.721-35.03c.393-5.019 4.747-8.796 9.772-8.464l30.107 1.985c5.499.358 9.627 5.14 9.208 10.633l-2.752 35.338c-.405 5.142-4.948 8.941-10.059 8.436l-30.749-3.044c-4.967-.492-8.637-4.877-8.248-9.854zM354.559 339.583l2.539-32.768c.402-5.1 4.823-8.933 9.93-8.593l30.497 2.024c5.189.348 9.116 4.861 8.707 10.044l-2.618 33.776c-.414 5.224-5.026 9.1-10.24 8.583l-30.42-3.011c-5.046-.541-8.771-4.993-8.395-10.055zM309.717 234.759l34.91 3.518c3.838.38 6.654 3.768 6.358 7.594l-2.456 31.512c-.3 3.867-3.657 6.789-7.528 6.53l-35.009-2.304c-3.933-.265-6.911-3.69-6.605-7.619l2.535-32.727c.331-3.967 3.836-6.916 7.795-6.504zM291.046 241.617l-2.328 30.012a8.906 8.906 0 0 1-9.476 8.202l-31.364-2.068c-4.942-.323-8.682-4.632-8.295-9.589l2.415-31.101c.39-4.978 4.799-8.687 9.785-8.173l31.276 3.159c4.822.498 8.362 4.724 7.987 9.558zM400.967 287.88l-35.009-2.305c-3.933-.264-6.91-3.689-6.604-7.618l2.371-30.649a7.088 7.088 0 0 1 7.774-6.506l34.91 3.518c3.838.38 6.653 3.767 6.358 7.593l-2.292 29.435c-.28 3.869-3.635 6.771-7.508 6.532zM307.084 294.236l30.497 2.024c5.189.348 9.095 4.86 8.706 10.045l-2.466 31.821c-.413 5.224-5.025 9.1-10.239 8.584l-30.42-3.012a9.338 9.338 0 0 1-8.397-10.034l2.387-30.814c.402-5.1 4.825-8.953 9.932-8.614zM246.087 290.209l32.64 2.153c4.592.31 8.073 4.302 7.7 8.908l-2.487 32.027a8.271 8.271 0 0 1-9.064 7.601l-32.555-3.222c-4.475-.443-7.794-4.399-7.433-8.882l2.401-30.957c.345-4.526 4.266-7.911 8.798-7.628zM459.37 232.059l-24.277-2.258c-6.45-.597-11.235-6.274-10.741-12.733l1.55-20.056c.476-6.068 5.95-10.48 11.962-9.657l26.918 3.639c6.115.833 10.509 6.284 10.026 12.413l-1.307 16.764c-.547 7.201-6.923 12.56-14.131 11.888zM471.706 383.204c.419-5.493 5.259-9.574 10.744-9.072l10.581.944c8.034.712 14.077 6.679 13.558 13.385l-1.506 19.397c-.512 6.644-7.303 11.589-15.3 11.129l-11.398-.651c-5.133-.28-9.044-4.751-8.638-9.893l1.959-25.239zM132.444 342.905l20.813 1.853c5.095.463 8.901 4.944 8.499 10.044l-2.831 36.346c-.399 5.08-4.777 8.896-9.849 8.622l-20.778-1.165c-8.286-.468-14.672-6.531-14.134-13.422l2.421-31.162c.512-6.852 7.64-11.847 15.859-11.116zM493.425 362.512l-10.325-1.023c-5.357-.53-9.307-5.232-8.879-10.6l2.76-35.627c.409-5.39 5.103-9.465 10.497-9.097l10.421.679c8.217.544 14.501 6.576 13.97 13.405l-2.421 31.163c-.517 6.893-7.771 11.916-16.023 11.1zM499.28 294.358l-13.036-.855c-4.16-.267-7.284-3.893-6.955-8.047l1.987-25.734c.331-4.175 4.038-7.29 8.203-6.857l13.115 1.319c7.962.809 13.885 6.722 13.352 13.365l-1.22 15.673c-.498 6.708-7.375 11.686-15.446 11.136zM344.13 221.729l-31.999-2.981c-4.662-.44-8.112-4.534-7.735-9.181l2.369-30.422c.383-4.916 4.819-8.477 9.688-7.829l31.887 4.317c4.5.611 7.751 4.623 7.386 9.147l-2.257 29.085c-.369 4.772-4.575 8.315-9.339 7.864zM148.366 148.127l20.782 2.803c4.685.63 8.043 4.818 7.682 9.508l-2.786 35.894c-.387 4.957-4.753 8.65-9.702 8.181l-21.483-2.003c-8.01-.751-14.013-6.693-13.496-13.378l2.33-30.032c.553-7.055 8.206-12.122 16.673-10.973zM302.363 358.046l30.449 2.724c5.095.463 8.882 4.922 8.479 10.043l-2.377 30.504c-.398 5.06-4.778 8.896-9.848 8.601l-30.528-1.716c-5.236-.29-9.202-4.828-8.788-10.052l2.454-31.491c.411-5.204 4.96-9.065 10.159-8.613zM142.353 217.882l21.118 2.132c4.823.477 8.362 4.724 7.987 9.558l-2.655 34.145a8.907 8.907 0 0 1-9.476 8.203l-21.293-1.403c-8.217-.544-14.501-6.576-13.971-13.405l2.185-28.139c.559-6.909 7.834-11.931 16.105-11.091zM136.675 282.985l22.137 1.466c4.592.309 8.073 4.302 7.7 8.908l-2.183 28.119a8.272 8.272 0 0 1-9.064 7.601l-22.169-2.194c-7.964-.789-13.906-6.725-13.393-13.369l1.506-19.397c.518-6.706 7.414-11.662 15.466-11.134zM226.46 297.304l-2.334 30.073a8.274 8.274 0 0 1-9.065 7.601l-32.555-3.223c-4.475-.443-7.795-4.378-7.432-8.882l2.249-29.003c.344-4.526 4.265-7.911 8.797-7.628l32.641 2.153c4.591.31 8.07 4.323 7.699 8.909zM182.659 347.378l30.429 2.722c5.094.463 8.902 4.923 8.499 10.044l-2.679 34.392c-.399 5.08-4.778 8.896-9.85 8.622l-30.507-1.714c-5.236-.29-9.202-4.829-8.809-10.055l2.756-35.378c.414-5.224 4.985-9.104 10.161-8.633zM503.321 236.161l-12.735-1.178a7.47 7.47 0 0 1-6.75-8.027l1.951-25.157c.341-4.277 4.194-7.399 8.449-6.832l13.417 1.825c7.692 1.031 13.272 6.848 12.759 13.285l-1.175 15.015c-.492 6.854-7.681 11.842-15.916 11.069zM242.51 352.723l29.915 2.671c5.385.471 9.394 5.199 8.962 10.608l-2.476 31.925c-.4 5.08-4.778 8.896-9.85 8.622l-30.507-1.715c-5.236-.29-9.202-4.828-8.809-10.054l2.604-33.425c.415-5.244 4.984-9.103 10.161-8.632zM236.47 168.539l-2.602 33.404c-.387 4.957-4.753 8.65-9.702 8.18l-31.3-2.911a8.91 8.91 0 0 1-8.049-9.565l2.688-34.702c.402-5.1 5-8.832 10.072-8.144l31.212 4.23c4.664.628 8.044 4.797 7.681 9.508zM231.263 235.595l-2.493 32.089a8.908 8.908 0 0 1-9.476 8.203l-31.364-2.068c-4.942-.324-8.682-4.632-8.295-9.589l2.577-33.158c.39-4.978 4.799-8.687 9.785-8.173l31.276 3.158c4.805.455 8.364 4.704 7.99 9.538zM513.365 170.08l-2.481 10.409a6.94 6.94 0 0 1-7.326 5.327l-.495-.028a6.965 6.965 0 0 1-6.409-7.496l.843-10.819c.332-4.196 4.272-7.143 8.394-6.279l2.152.462c3.818.793 6.24 4.597 5.322 8.424zM464.638 162.5l-2.481 10.408a6.941 6.941 0 0 1-7.326 5.328l-.495-.029a6.964 6.964 0 0 1-6.409-7.495l.843-10.819c.333-4.196 4.272-7.143 8.395-6.279l2.151.462c3.816.813 6.238 4.618 5.322 8.424zM404.268 157.374l-2.481 10.408a6.941 6.941 0 0 1-7.326 5.328l-.495-.029a6.964 6.964 0 0 1-6.409-7.495l.843-10.819c.333-4.196 4.272-7.143 8.395-6.279l2.151.462c3.839.794 6.238 4.618 5.322 8.424zM345.802 148.933l-2.482 10.408a6.939 6.939 0 0 1-7.326 5.327l-.492-.048a6.965 6.965 0 0 1-6.409-7.496l.843-10.819c.332-4.196 4.272-7.143 8.394-6.279l2.152.462a6.97 6.97 0 0 1 5.32 8.445zM286.234 135.284l-2.481 10.408a6.941 6.941 0 0 1-7.326 5.328l-.495-.029a6.964 6.964 0 0 1-6.409-7.495l.843-10.819c.332-4.196 4.272-7.143 8.394-6.279l2.152.462c3.818.792 6.238 4.618 5.322 8.424zM222.2 130.313l-2.481 10.409a6.94 6.94 0 0 1-7.326 5.327l-.495-.028a6.965 6.965 0 0 1-6.409-7.496l.843-10.819c.332-4.195 4.272-7.143 8.395-6.279l2.151.462c3.818.793 6.238 4.618 5.322 8.424zM168.368 123.844l-2.481 10.409a6.94 6.94 0 0 1-7.326 5.327l-.495-.028a6.964 6.964 0 0 1-6.409-7.495l.843-10.82c.332-4.195 4.272-7.143 8.394-6.278l2.152.461c3.818.793 6.238 4.618 5.322 8.424z" fill="#fff" fill-opacity=".05"/></g></g><defs><clipPath id="clip0"><path fill="#fff" d="M0 0h499v484H0z"/></clipPath><clipPath id="clip1"><path fill="#fff" transform="rotate(5.653 197.857 306.458)" d="M0 0h616.076v478.65H0z"/></clipPath></defs></svg>

<svg width="499" height="484" viewBox="0 0 499 484" fill="none" xmlns="http://www.w3.org/2000/svg">
<g clip-path="url(#clip0)">
<g clip-path="url(#clip1)">
<path d="M2.7712 379.959C19.0888 298.456 59.7468 96.0739 67.1595 66.6281C76.4797 29.6396 121.679 42.4879 121.679 42.4879L93.9152 423.473L29.749 417.121C21.1278 416.268 13.2644 411.737 8.14255 404.639C3.00019 397.539 1.04551 388.598 2.7712 379.959Z" fill="#EB3333"/>
<path d="M517.521 475.065C537.597 476.617 555.147 461.606 556.699 441.529L580.689 132.386C582.004 115.333 569.736 100.231 552.77 98.0336L106.337 40.4305C93.0542 38.7217 81.0138 48.329 79.7156 61.6529L45.7689 415.474C44.5704 427.999 53.8812 439.056 66.4063 440.048L517.521 475.065Z" fill="#EB3333"/>
<path d="M538.061 446.173C544.25 446.682 549.456 441.621 549.095 435.429C546.732 394.382 540.547 253.339 558.379 138.532C559.186 133.305 555.547 128.405 550.308 127.721L118.808 71.078C112.894 70.306 107.467 74.4533 106.654 80.3631C100.001 128.726 73.3586 327.935 75.2962 399.866C75.4217 404.252 78.82 407.822 83.1777 408.191L538.061 446.173Z" fill="#EB3333"/>
<path d="M44.986 412.701C45.6018 412.762 46.1657 412.3 46.2267 411.684L67.3178 212.65C67.3807 212.014 66.9369 211.473 66.3026 211.389C65.6868 211.328 65.1228 211.791 65.0619 212.406L43.9708 411.44C43.8873 412.074 44.3496 412.638 44.986 412.701Z" fill="#EB3333"/>
<path d="M70.912 167.965C71.5278 168.026 72.0918 167.563 72.1527 166.948L79.511 97.4297C79.574 96.7934 79.1302 96.252 78.4959 96.1684C77.8801 96.1075 77.3161 96.5698 77.2551 97.1856L69.8968 166.704C69.8339 167.34 70.2757 167.902 70.912 167.965Z" fill="#EB3333"/>
<path d="M204.94 16.1356C224.923 22.6117 217.674 76.1594 213.874 97.7961C212.976 102.889 208.314 106.428 203.162 105.918C201.725 105.776 200.431 105.026 199.593 103.865C198.734 102.702 198.422 101.241 198.727 99.8411C202.124 83.533 210.58 36.4267 195.786 32.392C195.786 32.392 185.198 29.4163 181.303 50.1316L169.644 48.9774C169.623 48.9754 179.816 7.9899 204.94 16.1356Z" fill="#EB3333"/>
<path d="M304.099 28.7287C324.082 35.2048 316.833 88.7525 313.031 110.41C312.133 115.503 307.471 119.042 302.319 118.532C300.882 118.39 299.588 117.64 298.749 116.479C297.89 115.316 297.579 113.855 297.883 112.455C301.28 96.1467 309.741 48.9994 294.947 44.9646C294.947 44.9646 284.318 42.3994 280.468 62.6631L268.809 61.509C268.786 61.5275 278.975 20.583 304.099 28.7287Z" fill="#EB3333"/>
<path d="M403.253 41.3633C423.236 47.8393 415.985 101.408 412.183 123.065C411.285 128.158 406.621 131.717 401.469 131.207C400.032 131.065 398.739 130.315 397.898 129.175C397.039 128.012 396.728 126.551 397.032 125.151C400.429 108.843 408.891 61.6749 394.097 57.6402C394.097 57.6402 383.441 55.3624 379.58 75.7287L367.941 74.162C367.965 74.123 378.129 33.2175 403.253 41.3633Z" fill="#EB3333"/>
<path d="M502.367 54.4079C522.35 60.884 515.097 114.473 511.295 136.13C510.397 141.223 505.733 144.783 500.581 144.273C499.144 144.13 497.848 143.401 497.01 142.24C496.151 141.077 495.839 139.616 496.144 138.216C499.541 121.908 508.009 74.6785 493.213 70.6644C493.213 70.6644 482.593 68.0171 478.742 88.2807L467.083 87.1266C467.083 87.1266 477.243 46.2622 502.367 54.4079Z" fill="#EB3333"/>
<path d="M296.09 176.637L293.66 207.882C293.292 212.655 289.086 216.197 284.321 215.746L252.323 212.765C247.661 212.325 244.211 208.231 244.588 203.584L247.135 170.734C247.52 165.798 251.999 162.22 256.905 162.913L288.766 167.497C293.241 168.147 296.453 172.134 296.09 176.637Z" fill="white" fill-opacity="0.05"/>
<path d="M403.957 227.32L371.958 224.339C367.296 223.898 363.846 219.805 364.223 215.158L366.387 187.224C366.77 182.308 371.206 178.746 376.075 179.394L407.962 183.711C412.462 184.323 415.713 188.334 415.348 192.858L413.275 219.454C412.927 224.228 408.723 227.75 403.957 227.32Z" fill="white" fill-opacity="0.05"/>
<path d="M362.194 363.388L392.643 366.112C397.737 366.575 401.524 371.033 401.123 376.134L398.898 404.684C398.501 409.743 394.121 413.58 389.051 413.285L358.523 411.569C353.287 411.279 349.321 406.741 349.734 401.517L352.036 371.979C352.446 366.797 357.015 362.937 362.194 363.388Z" fill="white" fill-opacity="0.05"/>
<path d="M409.742 405.073L411.904 377.159C412.305 372.059 416.784 368.274 421.88 368.716L452.639 371.45C457.652 371.905 461.363 376.293 460.99 381.314L458.907 408.22C458.518 413.197 454.228 416.959 449.241 416.673L418.405 414.926C413.249 414.665 409.359 410.196 409.742 405.073Z" fill="white" fill-opacity="0.05"/>
<path d="M419.519 279.083L421.29 256.168C421.713 250.634 426.616 246.539 432.136 247.106L461.483 250.073C466.82 250.601 470.767 255.324 470.342 260.671L468.652 282.558C468.243 287.949 463.549 292.023 458.154 291.655L428.726 289.716C423.25 289.34 419.101 284.556 419.519 279.083Z" fill="white" fill-opacity="0.05"/>
<path d="M414.36 345.648L417.081 310.618C417.474 305.599 421.828 301.822 426.853 302.154L456.96 304.139C462.459 304.497 466.587 309.279 466.168 314.772L463.416 350.11C463.011 355.252 458.468 359.051 453.357 358.546L422.608 355.502C417.641 355.01 413.971 350.625 414.36 345.648Z" fill="white" fill-opacity="0.05"/>
<path d="M354.559 339.583L357.098 306.815C357.5 301.715 361.921 297.882 367.028 298.222L397.525 300.246C402.714 300.594 406.641 305.107 406.232 310.29L403.614 344.066C403.2 349.29 398.588 353.166 393.374 352.649L362.954 349.638C357.908 349.097 354.183 344.645 354.559 339.583Z" fill="white" fill-opacity="0.05"/>
<path d="M309.717 234.759L344.627 238.277C348.465 238.657 351.281 242.045 350.985 245.871L348.529 277.383C348.229 281.25 344.872 284.172 341.001 283.913L305.992 281.609C302.059 281.344 299.081 277.919 299.387 273.99L301.922 241.263C302.253 237.296 305.758 234.347 309.717 234.759Z" fill="white" fill-opacity="0.05"/>
<path d="M291.046 241.617L288.718 271.629C288.339 276.504 284.123 280.149 279.242 279.831L247.878 277.763C242.936 277.44 239.196 273.131 239.583 268.174L241.998 237.073C242.388 232.095 246.797 228.386 251.783 228.9L283.059 232.059C287.881 232.557 291.421 236.783 291.046 241.617Z" fill="white" fill-opacity="0.05"/>
<path d="M400.967 287.88L365.958 285.575C362.025 285.311 359.048 281.886 359.354 277.957L361.725 247.308C362.035 243.338 365.537 240.41 369.499 240.802L404.409 244.32C408.247 244.7 411.062 248.087 410.767 251.913L408.475 281.348C408.195 285.217 404.84 288.119 400.967 287.88Z" fill="white" fill-opacity="0.05"/>
<path d="M307.084 294.236L337.581 296.26C342.77 296.608 346.676 301.12 346.287 306.305L343.821 338.126C343.408 343.35 338.796 347.226 333.582 346.71L303.162 343.698C298.092 343.197 294.366 338.744 294.765 333.664L297.152 302.85C297.554 297.75 301.977 293.897 307.084 294.236Z" fill="white" fill-opacity="0.05"/>
<path d="M246.087 290.209L278.727 292.362C283.319 292.672 286.8 296.664 286.427 301.27L283.94 333.297C283.586 337.926 279.495 341.356 274.876 340.898L242.321 337.676C237.846 337.233 234.527 333.277 234.888 328.794L237.289 297.837C237.634 293.311 241.555 289.926 246.087 290.209Z" fill="white" fill-opacity="0.05"/>
<path d="M459.37 232.059L435.093 229.801C428.643 229.204 423.858 223.527 424.352 217.068L425.902 197.012C426.378 190.944 431.852 186.532 437.864 187.355L464.782 190.994C470.897 191.827 475.291 197.278 474.808 203.407L473.501 220.171C472.954 227.372 466.578 232.731 459.37 232.059Z" fill="white" fill-opacity="0.05"/>
<path d="M471.706 383.204C472.125 377.711 476.965 373.63 482.45 374.132L493.031 375.076C501.065 375.788 507.108 381.755 506.589 388.461L505.083 407.858C504.571 414.502 497.78 419.447 489.783 418.987L478.385 418.336C473.252 418.056 469.341 413.585 469.747 408.443L471.706 383.204Z" fill="white" fill-opacity="0.05"/>
<path d="M132.444 342.905L153.257 344.758C158.352 345.221 162.158 349.702 161.756 354.802L158.925 391.148C158.526 396.228 154.148 400.044 149.076 399.77L128.298 398.605C120.012 398.137 113.626 392.074 114.164 385.183L116.585 354.021C117.097 347.169 124.225 342.174 132.444 342.905Z" fill="white" fill-opacity="0.05"/>
<path d="M493.425 362.512L483.1 361.489C477.743 360.959 473.793 356.257 474.221 350.889L476.981 315.262C477.39 309.872 482.084 305.797 487.478 306.165L497.899 306.844C506.116 307.388 512.4 313.42 511.869 320.249L509.448 351.412C508.931 358.305 501.677 363.328 493.425 362.512Z" fill="white" fill-opacity="0.05"/>
<path d="M499.28 294.358L486.244 293.503C482.084 293.236 478.96 289.61 479.289 285.456L481.276 259.722C481.607 255.547 485.314 252.432 489.479 252.865L502.594 254.184C510.556 254.993 516.479 260.906 515.946 267.549L514.726 283.222C514.228 289.93 507.351 294.908 499.28 294.358Z" fill="white" fill-opacity="0.05"/>
<path d="M344.13 221.729L312.131 218.748C307.469 218.308 304.019 214.214 304.396 209.567L306.765 179.145C307.148 174.229 311.584 170.668 316.453 171.316L348.34 175.633C352.84 176.244 356.091 180.256 355.726 184.78L353.469 213.865C353.1 218.637 348.894 222.18 344.13 221.729Z" fill="white" fill-opacity="0.05"/>
<path d="M148.366 148.127L169.148 150.93C173.833 151.56 177.191 155.748 176.83 160.438L174.044 196.332C173.657 201.289 169.291 204.982 164.342 204.513L142.859 202.51C134.849 201.759 128.846 195.817 129.363 189.132L131.693 159.1C132.246 152.045 139.899 146.978 148.366 148.127Z" fill="white" fill-opacity="0.05"/>
<path d="M302.363 358.046L332.812 360.77C337.907 361.233 341.694 365.692 341.291 370.813L338.914 401.317C338.516 406.377 334.136 410.213 329.066 409.918L298.538 408.202C293.302 407.912 289.336 403.374 289.75 398.15L292.204 366.659C292.615 361.455 297.164 357.594 302.363 358.046Z" fill="white" fill-opacity="0.05"/>
<path d="M142.353 217.882L163.471 220.014C168.294 220.491 171.833 224.738 171.458 229.572L168.803 263.717C168.424 268.592 164.208 272.238 159.327 271.92L138.034 270.517C129.817 269.973 123.533 263.941 124.063 257.112L126.248 228.973C126.807 222.064 134.082 217.042 142.353 217.882Z" fill="white" fill-opacity="0.05"/>
<path d="M136.675 282.985L158.812 284.451C163.404 284.76 166.885 288.753 166.512 293.359L164.329 321.478C163.975 326.107 159.884 329.536 155.265 329.079L133.096 326.885C125.132 326.096 119.19 320.16 119.703 313.516L121.209 294.119C121.727 287.413 128.623 282.457 136.675 282.985Z" fill="white" fill-opacity="0.05"/>
<path d="M226.46 297.304L224.126 327.377C223.771 332.005 219.68 335.435 215.061 334.978L182.506 331.755C178.031 331.312 174.711 327.377 175.074 322.873L177.323 293.87C177.667 289.344 181.588 285.959 186.12 286.242L218.761 288.395C223.352 288.705 226.831 292.718 226.46 297.304Z" fill="white" fill-opacity="0.05"/>
<path d="M182.659 347.378L213.088 350.1C218.182 350.563 221.99 355.023 221.587 360.144L218.908 394.536C218.509 399.616 214.13 403.432 209.058 403.158L178.551 401.444C173.315 401.154 169.349 396.615 169.742 391.389L172.498 356.011C172.912 350.787 177.483 346.907 182.659 347.378Z" fill="white" fill-opacity="0.05"/>
<path d="M503.321 236.161L490.586 234.983C486.52 234.601 483.516 231.029 483.836 226.956L485.787 201.799C486.128 197.522 489.981 194.4 494.236 194.967L507.653 196.792C515.345 197.823 520.925 203.64 520.412 210.077L519.237 225.092C518.745 231.946 511.556 236.934 503.321 236.161Z" fill="white" fill-opacity="0.05"/>
<path d="M242.51 352.723L272.425 355.394C277.81 355.865 281.819 360.593 281.387 366.002L278.911 397.927C278.511 403.007 274.133 406.823 269.061 406.549L238.554 404.834C233.318 404.544 229.352 400.006 229.745 394.78L232.349 361.355C232.764 356.111 237.333 352.252 242.51 352.723Z" fill="white" fill-opacity="0.05"/>
<path d="M236.47 168.539L233.868 201.943C233.481 206.9 229.115 210.593 224.166 210.123L192.866 207.212C188.019 206.753 184.44 202.501 184.817 197.647L187.505 162.945C187.907 157.845 192.505 154.113 197.577 154.801L228.789 159.031C233.453 159.659 236.833 163.828 236.47 168.539Z" fill="white" fill-opacity="0.05"/>
<path d="M231.263 235.595L228.77 267.684C228.391 272.559 224.175 276.204 219.294 275.887L187.93 273.819C182.988 273.495 179.248 269.187 179.635 264.23L182.212 231.072C182.602 226.094 187.011 222.385 191.997 222.899L223.273 226.057C228.078 226.512 231.637 230.761 231.263 235.595Z" fill="white" fill-opacity="0.05"/>
<path d="M513.365 170.08L510.884 180.489C510.097 183.831 506.992 186.094 503.558 185.816L503.063 185.788C499.217 185.49 496.356 182.139 496.654 178.292L497.497 167.473C497.829 163.277 501.769 160.33 505.891 161.194L508.043 161.656C511.861 162.449 514.283 166.253 513.365 170.08Z" fill="white" fill-opacity="0.05"/>
<path d="M464.638 162.5L462.157 172.908C461.37 176.25 458.265 178.513 454.831 178.236L454.336 178.207C450.49 177.909 447.629 174.559 447.927 170.712L448.77 159.893C449.103 155.697 453.042 152.75 457.165 153.614L459.316 154.076C463.132 154.889 465.554 158.694 464.638 162.5Z" fill="white" fill-opacity="0.05"/>
<path d="M404.268 157.374L401.787 167.782C401 171.124 397.895 173.387 394.461 173.11L393.966 173.081C390.12 172.783 387.259 169.433 387.557 165.586L388.4 154.767C388.733 150.571 392.672 147.624 396.795 148.488L398.946 148.95C402.785 149.744 405.184 153.568 404.268 157.374Z" fill="white" fill-opacity="0.05"/>
<path d="M345.802 148.933L343.32 159.341C342.534 162.683 339.428 164.946 335.994 164.668L335.502 164.62C331.655 164.322 328.795 160.971 329.093 157.124L329.936 146.305C330.268 142.109 334.208 139.162 338.33 140.026L340.482 140.488C344.298 141.301 346.719 145.106 345.802 148.933Z" fill="white" fill-opacity="0.05"/>
<path d="M286.234 135.284L283.753 145.692C282.966 149.034 279.861 151.297 276.427 151.02L275.932 150.991C272.085 150.693 269.225 147.343 269.523 143.496L270.366 132.677C270.698 128.481 274.638 125.534 278.76 126.398L280.912 126.86C284.73 127.652 287.15 131.478 286.234 135.284Z" fill="white" fill-opacity="0.05"/>
<path d="M222.2 130.313L219.719 140.722C218.932 144.064 215.827 146.327 212.393 146.049L211.898 146.021C208.052 145.723 205.191 142.372 205.489 138.525L206.332 127.706C206.664 123.511 210.604 120.563 214.727 121.427L216.878 121.889C220.696 122.682 223.116 126.507 222.2 130.313Z" fill="white" fill-opacity="0.05"/>
<path d="M168.368 123.844L165.887 134.253C165.1 137.595 161.995 139.858 158.561 139.58L158.066 139.552C154.219 139.254 151.359 135.903 151.657 132.057L152.5 121.237C152.832 117.042 156.772 114.094 160.894 114.959L163.046 115.42C166.864 116.213 169.284 120.038 168.368 123.844Z" fill="white" fill-opacity="0.05"/>
</g>
</g>
<defs>
<clipPath id="clip0">
<rect width="499" height="484" fill="white"/>
</clipPath>
<clipPath id="clip1">
<rect width="616.076" height="478.65" fill="white" transform="translate(31.151 -18) rotate(5.65328)"/>
</clipPath>
</defs>
</svg>
